src/next/cmd/hu/sc_underlinedouble.svg

<svg height="16" viewBox="0 0 4.2333333 4.2333335" width="16" xmlns="http://www.w3.org/2000/svg" xmlns:xlink="http://www.w3.org/1999/xlink"><linearGradient id="a" gradientUnits="userSpaceOnUse" x1="14.678828" x2="15.819673" y1="27.146412" y2=".906954"><stop offset="0" stop-color="#555"/><stop offset="1"/></linearGradient><linearGradient id="b" gradientTransform="matrix(.26458334 0 0 .25582261 -4.530496 -2.107362)" gradientUnits="userSpaceOnUse" x1="53.167969" x2="108.31641" y1="43.248047" y2="43.248047"><stop offset="0" stop-color="#3b3e22"/><stop offset="1" stop-color="#454545" stop-opacity="0"/></linearGradient><g transform="scale(.125)"><g fill="#010101" stroke-width=".264583"><rect height="2.116667" rx=".472075" ry=".607224" width="33.866669" y="31.750002"/><rect height="2.116667" rx=".472075" ry=".607224" width="33.866669" y="27.516666"/></g><path d="m29.615358 26.153897v.758663h-10.182051v-.758663q1.597184-.03993 2.196128-.319437.598944-.279507.598944-1.03817 0-.958311-.758662-2.675284l-1.637114-3.833243h-10.4615583l-1.8367621 4.671765q-.3194369.838522-.3194369 1.557255 0 1.637114 2.7152135 1.637114v.758663h-7.906063v-.758663q1.4773956-.07986 2.2759879-1.118029.8385218-1.0781 2.6752839-5.430427l8.305359-19.60543944h.798592l9.942474 22.68001944q.95831 2.196128 1.597184 2.795073.638874.598944 1.996481.678803zm-19.56551-9.503248h9.22374l-4.631835-10.9806427z" fill="url(#a)" stroke-width=".9486" transform="scale(1.0703969 .93423293)"/><path d="m16.7912 1.3662292-1.512569 3.1203363a1.0125134.88371271 0 0 1 1.327568.4681754l4.956287 10.2573871a1.0125134.88371271 0 0 1 -.248564.993812 1.0125134.88371271 0 0 1 .716236.340763 24.251978 12.626363 0 0 0 2.098063-.574102zm-7.0057737 14.4359908-.2485636.513144a1.0125134.88371271 0 0 1 .4935103-.112922h.04082a1.0125134.88371271 0 0 1 -.2857667-.400222z" fill="url(#b)"/></g></svg>

<?xml version="1.0" encoding="UTF-8" standalone="no"?>
<svg
   xmlns:dc="http://purl.org/dc/elements/1.1/"
   xmlns:cc="http://creativecommons.org/ns#"
   xmlns:rdf="http://www.w3.org/1999/02/22-rdf-syntax-ns#"
   xmlns:svg="http://www.w3.org/2000/svg"
   xmlns="http://www.w3.org/2000/svg"
   xmlns:xlink="http://www.w3.org/1999/xlink"
   xmlns:sodipodi="http://sodipodi.sourceforge.net/DTD/sodipodi-0.dtd"
   xmlns:inkscape="http://www.inkscape.org/namespaces/inkscape"
   height="16"
   viewBox="0 0 4.2333333 4.2333335"
   width="16"
   version="1.1"
   id="svg24"
   sodipodi:docname="sc_underlinedouble.svg"
   inkscape:version="0.92.4 (unknown)">
  <metadata
     id="metadata30">
    <rdf:RDF>
      <cc:Work
         rdf:about="">
        <dc:format>image/svg+xml</dc:format>
        <dc:type
           rdf:resource="http://purl.org/dc/dcmitype/StillImage" />
        <dc:title></dc:title>
      </cc:Work>
    </rdf:RDF>
  </metadata>
  <defs
     id="defs28">
    <linearGradient
       inkscape:collect="always"
       xlink:href="#b"
       id="linearGradient856"
       gradientUnits="userSpaceOnUse"
       x1="14.678828"
       y1="27.146412"
       x2="15.819673"
       y2="0.90695399" />
    <linearGradient
       inkscape:collect="always"
       xlink:href="#b"
       id="linearGradient858"
       gradientUnits="userSpaceOnUse"
       x1="14.678828"
       y1="27.146412"
       x2="15.819673"
       y2="0.90695399" />
  </defs>
  <sodipodi:namedview
     pagecolor="#ffffff"
     bordercolor="#666666"
     borderopacity="1"
     objecttolerance="10"
     gridtolerance="10"
     guidetolerance="10"
     inkscape:pageopacity="0"
     inkscape:pageshadow="2"
     inkscape:window-width="1366"
     inkscape:window-height="706"
     id="namedview26"
     showgrid="true"
     inkscape:zoom="10.429825"
     inkscape:cx="9.7161421"
     inkscape:cy="13.180282"
     inkscape:window-x="0"
     inkscape:window-y="0"
     inkscape:window-maximized="1"
     inkscape:current-layer="g854">
    <inkscape:grid
       type="xygrid"
       id="grid843" />
  </sodipodi:namedview>
  <linearGradient
     id="a"
     gradientTransform="matrix(0.26458334,0,0,0.25582261,-4.530496,-2.107362)"
     gradientUnits="userSpaceOnUse"
     x1="53.167969"
     x2="108.31641"
     y1="43.248047"
     y2="43.248047">
    <stop
       offset="0"
       stop-color="#3b3e22"
       id="stop2" />
    <stop
       offset="1"
       stop-color="#454545"
       stop-opacity="0"
       id="stop4" />
  </linearGradient>
  <linearGradient
     id="b"
     gradientUnits="userSpaceOnUse"
     x1="14.678828"
     x2="15.819673"
     y1="27.146412"
     y2="0.90695399">
    <stop
       offset="0"
       stop-color="#555"
       id="stop7" />
    <stop
       offset="1"
       id="stop9" />
  </linearGradient>
  <g
     id="g854"
     transform="scale(0.125)">
    <g
       id="g16"
       style="fill:#010101;stroke-width:0.26458299">
      <rect
         id="rect12"
         y="31.750002"
         width="33.866669"
         ry="0.60722399"
         rx="0.47207499"
         height="2.116667"
         x="0" />
      <rect
         id="rect14"
         y="27.516666"
         width="33.866669"
         ry="0.60722399"
         rx="0.47207499"
         height="2.116667"
         x="0" />
    </g>
    <g
       id="text20"
       style="font-size:37.94400406px;font-family:sans-serif;letter-spacing:0;word-spacing:0;fill:url(#linearGradient858);stroke-width:0.94859999"
       transform="scale(1.0703969,0.93423293)"
       aria-label="A">
      <path
         id="path840"
         style="font-size:39.92961121px;font-family:FreeSerif;fill:url(#linearGradient856);stroke-width:0.94859999"
         d="M 29.615358,26.153897 V 26.91256 H 19.433307 v -0.758663 q 1.597184,-0.03993 2.196128,-0.319437 0.598944,-0.279507 0.598944,-1.03817 0,-0.958311 -0.758662,-2.675284 L 19.832603,18.287763 H 9.3710447 l -1.8367621,4.671765 q -0.3194369,0.838522 -0.3194369,1.557255 0,1.637114 2.7152135,1.637114 v 0.758663 h -7.906063 v -0.758663 q 1.4773956,-0.07986 2.2759879,-1.118029 0.8385218,-1.0781 2.6752839,-5.430427 L 15.280627,1.5563965e-6 h 0.798592 L 26.021693,22.680021 q 0.95831,2.196128 1.597184,2.795073 0.638874,0.598944 1.996481,0.678803 z m -19.56551,-9.503248 h 9.22374 L 14.641753,5.6700063 Z"
         inkscape:connector-curvature="0" />
    </g>
    <path
       id="path22"
       d="m 16.7912,1.3662292 -1.512569,3.1203363 a 1.0125134,0.88371271 0 0 1 1.327568,0.4681754 l 4.956287,10.2573871 a 1.0125134,0.88371271 0 0 1 -0.248564,0.993812 1.0125134,0.88371271 0 0 1 0.716236,0.340763 24.251978,12.626363 0 0 0 2.098063,-0.574102 z M 9.7854263,15.80222 9.5368627,16.315364 a 1.0125134,0.88371271 0 0 1 0.4935103,-0.112922 h 0.04082 A 1.0125134,0.88371271 0 0 1 9.7854263,15.80222 Z"
       style="fill:url(#a)"
       inkscape:connector-curvature="0" />
  </g>
</svg>
